X:1
T:Reginam nostram
T:Agostino Steffani
T:Sacer Janus Quadrifrons, tribus vocibus qualibet. M.DC.LXXXV 
T:(1654 - 1728)
T:Reginam nostram
T:(C) Wim Looyestijn - 2015. May be freely copied for non-commercial use.
T:(C) Wim Looyestijn - 2015. May be freely copied for non-commercial use.
T:(C) Wim Looyestijn - 2015. May be freely copied for non-commercial use.
T:(C) Wim Looyestijn - 2015. May be freely copied for non-commercial use.
C:Agostino Steffani
Z:(C) Wim Looyestijn - 2015. May be freely copied for non-commercial use.
%%score 1 2
L:1/8
Q:1/4=480
M:4/4
K:F
V:1 bass nm="Basso" snm="B"
V:2 bass nm="B.C." snm="BC"
V:1
 z2 z C, F,2 F,2 | z F,A,C G,G,=B,A, | F,>F, F,2 F,2 G,A, | E,3 F, D,>D, D,2 | z2 z D, D,2 E,F, | %5
w: Re- gi- nam,|re- gi- nam nos- tram for- mo-|sis- si- mam so- lis a-|mi- ctam lu- mi- ne|stel- la- rum cir-|
 =B,,2 B,,C, C,>C, C,2 |[M:3/2] E,4 F,4 G,4 | A,6 B,2 C4 | F,4 G,8 | C,2 C2 =B,2 C2 B,2 A,2 | %10
w: cum- da- ta ra- di- is,|fi- de- les|a- ni- mae|ex- al-|ta- * * * * *|
 G,2 A,2 G,2 A,2 G,2 F,2 | E,2 F,2 E,2 F,2 E,2 D,2 | C,2 D,2 C,2 B,,2 A,,2 G,,2 | A,,2 F,,2 G,,8 | %14
w: ||* * te, * ex- *|al- * ta-|
 C,12 |[M:4/4] z2 z G, C2 C2 | z C,E,G, D,D,F,E, | C,>C, C,2 A,2 B,C | A,3 B, G,>G, G,2 | %19
w: te.|Re- gi- nam,|re- gi- nam nos- tram for- mo-|sis- si- mam so- lis a-|mi- ctam lu- mi- ne,|
 z2 z G, G,2 A,B, | E,2 E,F, F,>F, F,2 |[M:3/2] A,,4 B,,4 C,4 | D,6 E,2 F,4 | B,,4 C,8 | %24
w: stel- la- run cir-|cum- da- tam ra- di- is,|fi- de- les|a- ni- mae|ex- al-|
 F,,2 F,2 E,2 F,2 E,2 D,2 | C,2 C2 B,2 C2 B,2 A,2 | G,2 C,2 B,,2 C,2 B,,2 A,,2 | %27
w: ta- * * * * *|||
 G,,2 G,2 F,2 G,2 F,2 E,2 | D,2 B,,2 A,,2 B,,2 A,,2 G,,2 | F,,2 F,2 E,2 F,2 E,2 D,2 | %30
w: (a)- * * * * *|||
 E,2 D,2 C,2 B,,2 A,,2 G,,2 | A,,2 F,,2 C,8 | F,12 |[M:4/4] z2 z F, G,>B, A,G, | %34
w: * * te, * ex- *|al- * ta-|te.|Et or- ga- nis et|
 F,>E, D,D B,>B, A,A,, | D,>E, F,/G,/ F,/G,/ A,A,, z A,, | %36
w: tu- bis, * et can- ti- cis et|hym- nis sa- * lu- * ta- te et|
 B,,>C, D,/E,/ D,/E,/ F,F,, G,,/A,,/B,,/C,/ | D,/E,/F,/G,/ A,/B,/C/A,/ D/C/B,/A,/ G,/F,/E,/D,/ | %38
w: hym- nis sa- * lu- * ta- te, sa- * * *||
 B,G, A,,2 D,2 z A, | B,>D CB, A,>G, F,F, | D,>D, C,C, F,>G, A,/B,/ A,/B,/ | %41
w: * lu- ta- te, et|or- ga- nis et tu- * bis et|can- ti- cis et hym- nis sa- * lu- *|
 CC, z C, D,>E, F,/G,/ F,/G,/ | A,A,, B,,/C,/D,/E,/ F,/G,/A,/B,/ C/C,/D,/E,/ | %43
w: ta- te et hym- nis sa- * lu- *|ta- te, sa- * * * * * * * * * * *|
 F,/F,,/G,,/A,,/ B,,/C,/D,/B,,/ C,F, C,2 | F,,8 |] %45
w: * * * * * * * * * lu- ta-|te.|
V:2
 F,,8 | F,8- | F,8 | E,4 D,4 | D,8 | D,4 C,4 |[M:3/2] C,4 D,4 E,4 | F,8 E,4 | F,4 G,8 | C,4 D,8 | %10
 E,4 =B,,8 | C,4 G,,8 | A,,4 E,,4 F,,4- | F,,4 G,,8 | C,12 |[M:4/4] C,8 | C,8- | C,4 A,,4- | %18
 A,,4 G,,4 | G,,8 | G,,4 F,,4 |[M:3/2] F,,4 G,,4 A,,4 | B,,8 A,,4 | B,,4 C,8 | F,,4 G,,8 | %25
 A,,4 B,,8 | C,4 B,,6 A,,2 | G,,4 A,,8 | B,,4 A,,6 G,,2 | F,,4 E,6 D,2 | C,6 B,,2 A,,4 | F,,4 C,8 | %32
 F,,12 |[M:4/4] D,4 G,,2 A,,2 | D,2 z F,, G,,>B,, A,,>G,, | F,,>E,, D,,D, C,>B,, A,,/G,,/A,,/F,,/ | %36
 B,,B,, z B,, A,,G,,/F,,/ G,,F,,/E,,/ | D,,D, C,A,, B,,3 C,/D,/ | G,,2 A,,2 D,>E, F,2 | %39
 B,,2 C,2 F,2 z A,, | B,,>D, C,>B,, A,,G,, F,,F, | E,>D, C,/B,,/C,/A,,/ D,D, z D, | %42
 C,B,,/A,,/ B,,A,,/G,,/ F,,F, E,D,/C,/ | D,>C, B,,G,, C,F, C,2 | F,,8 |] %45

